SVG_Azure_All/Network Function Manager Vendor.svg

<?xml version="1.0" encoding="UTF-8" standalone="no"?>
<!-- Generated by Microsoft Visio, SVG Export Network Function Manager Vendor.svg Page-1 -->

<svg
   xmlns:dc="http://purl.org/dc/elements/1.1/"
   xmlns:cc="http://creativecommons.org/ns#"
   xmlns:rdf="http://www.w3.org/1999/02/22-rdf-syntax-ns#"
   xmlns:svg="http://www.w3.org/2000/svg"
   xmlns="http://www.w3.org/2000/svg"
   xmlns:sodipodi="http://sodipodi.sourceforge.net/DTD/sodipodi-0.dtd"
   xmlns:inkscape="http://www.inkscape.org/namespaces/inkscape"
   width="0.74835908in"
   height="0.78741246in"
   viewBox="0 0 53.881855 56.694008"
   xml:space="preserve"
   class="st8"
   version="1.1"
   id="svg80"
   sodipodi:docname="Network Function Manager Vendor.svg"
   style="font-size:12px;overflow:visible;color-interpolation-filters:sRGB;fill:none;fill-rule:evenodd;stroke-linecap:square;stroke-miterlimit:3"
   inkscape:version="0.92.5 (2060ec1f9f, 2020-04-08)"><metadata
   id="metadata84"><rdf:RDF><cc:Work
       rdf:about=""><dc:format>image/svg+xml</dc:format><dc:type
         rdf:resource="http://purl.org/dc/dcmitype/StillImage" /></cc:Work></rdf:RDF></metadata><sodipodi:namedview
   pagecolor="#ffffff"
   bordercolor="#666666"
   borderopacity="1"
   objecttolerance="10"
   gridtolerance="10"
   guidetolerance="10"
   inkscape:pageopacity="0"
   inkscape:pageshadow="2"
   inkscape:window-width="640"
   inkscape:window-height="480"
   id="namedview82"
   showgrid="false"
   inkscape:zoom="1.4193119"
   inkscape:cx="35.917867"
   inkscape:cy="37.786207"
   inkscape:window-x="0"
   inkscape:window-y="0"
   inkscape:window-maximized="0"
   inkscape:current-layer="svg80" />
	<style
   type="text/css"
   id="style2">
	<![CDATA[
		.st1 {fill:url(#grad0-6);stroke:none;stroke-linecap:butt;stroke-width:34}
		.st2 {fill:#ffffff;fill-opacity:0.8;stroke:none;stroke-linecap:butt;stroke-width:34}
		.st3 {fill:url(#grad0-12);stroke:none;stroke-linecap:butt;stroke-width:34}
		.st4 {fill:url(#grad0-16);stroke:none;stroke-linecap:butt;stroke-width:34}
		.st5 {fill:#ffffff;stroke:none;stroke-linecap:butt;stroke-width:34}
		.st6 {fill:#ffffff;fill-opacity:0.6;stroke:none;stroke-linecap:butt;stroke-width:34}
		.st7 {fill:url(#grad0-24);stroke:none;stroke-linecap:butt;stroke-width:34}
		.st8 {fill:none;fill-rule:evenodd;font-size:12px;overflow:visible;stroke-linecap:square;stroke-miterlimit:3}
	]]>
	</style>

	<defs
   id="Patterns_And_Gradients">
		<linearGradient
   id="grad0-6"
   x1="-0.015978193"
   y1="118.01863"
   x2="34.535032"
   y2="118.01863"
   gradientTransform="scale(1.2233954,0.81739722)"
   gradientUnits="userSpaceOnUse">
			<stop
   offset="0"
   stop-color="#a67af4"
   stop-opacity="1"
   id="stop4" />
			<stop
   offset="1"
   stop-color="#773adc"
   stop-opacity="1"
   id="stop6" />
		</linearGradient>
		<linearGradient
   id="grad0-12"
   x1="0"
   y1="97.880876"
   x2="26.075722"
   y2="97.880876"
   gradientTransform="scale(0.99396672,1.0060699)"
   gradientUnits="userSpaceOnUse">
			<stop
   offset="0"
   stop-color="#a67af4"
   stop-opacity="1"
   id="stop9" />
			<stop
   offset="1"
   stop-color="#773adc"
   stop-opacity="1"
   id="stop11" />
		</linearGradient>
		<linearGradient
   id="grad0-16"
   x1="-1.3528143e-07"
   y1="218.93811"
   x2="18.176752"
   y2="218.93811"
   gradientTransform="scale(1.9013298,0.52594768)"
   gradientUnits="userSpaceOnUse">
			<stop
   offset="0"
   stop-color="#3cd4c2"
   stop-opacity="1"
   id="stop14" />
			<stop
   offset="1"
   stop-color="#37c2b1"
   stop-opacity="1"
   id="stop16" />
		</linearGradient>
		<linearGradient
   id="grad0-24"
   x1="-1.3528143e-07"
   y1="218.93811"
   x2="18.176752"
   y2="218.93811"
   gradientTransform="scale(1.9013298,0.52594768)"
   gradientUnits="userSpaceOnUse">
			<stop
   offset="0"
   stop-color="#3cd4c2"
   stop-opacity="1"
   id="stop19" />
			<stop
   offset="1"
   stop-color="#37c2b1"
   stop-opacity="1"
   id="stop21" />
		</linearGradient>
	</defs>
	<g
   id="g78"
   transform="translate(-34.000785,-34.000303)">
		<title
   id="title25">Page-1</title>
		<g
   id="group2889-1"
   transform="translate(34.02,-34.0157)">
			<title
   id="title27">Network Function Manager Vendor</title>
			<g
   id="group2890-2">
				<title
   id="title29">Sheet.2890</title>
				<g
   id="shape2891-3"
   transform="translate(0,-5.34112)">
					<title
   id="title31">Sheet.2891</title>
					<path
   d="m 17.67,121.66 a 2.75658,2.79014 0 0 1 0.89,-2.05 2.7697,2.80342 0 0 1 -0.89,-2.04 v -7.23 a 2.79268,2.82667 0 0 1 2.79,-2.82 H 42.25 A 20.845,21.0987 -180 0 0 23.22,96.48 c -14.03,0 -21.7,9 -23.22,23.58 a 4.14471,4.19517 -180 0 0 3.7,4.58 l 13.97,0.07 z"
   class="st1"
   id="path33"
   inkscape:connector-curvature="0"
   style="fill:url(#grad0-6);stroke:none;stroke-width:34;stroke-linecap:butt" />
				</g>
				<g
   id="shape2892-7"
   transform="translate(16.4968,-14.1965)">
					<title
   id="title36">Sheet.2892</title>
					<path
   d="M 6.91,108.44 A 12.8739,13.0306 0 0 1 0,106.34 l 6.91,18.37 6.9,-18.22 a 13.1955,13.3561 0 0 1 -6.9,1.95 z"
   class="st2"
   id="path38"
   inkscape:connector-curvature="0"
   style="fill:#ffffff;fill-opacity:0.8;stroke:none;stroke-width:34;stroke-linecap:butt" />
				</g>
				<g
   id="shape2893-9"
   transform="translate(10.3437,-30.459)">
					<title
   id="title41">Sheet.2893</title>
					<ellipse
   cx="12.9592"
   cy="111.592"
   rx="12.9592"
   ry="13.117"
   class="st3"
   id="ellipse43"
   style="fill:url(#grad0-12);stroke:none;stroke-width:34;stroke-linecap:butt" />
				</g>
				<g
   id="shape2894-13"
   transform="translate(19.3026,-11.3133)">
					<title
   id="title46">Sheet.2894</title>
					<path
   d="m 0,123.54 a 1.15516,1.16923 -180 0 0 1.16,1.17 H 33.4 a 1.15516,1.16923 -180 0 0 1.16,-1.17 v -7.22 A 1.15516,1.16923 -180 0 0 33.4,115.15 H 1.16 A 1.15516,1.16923 -180 0 0 0,116.32 Z"
   class="st4"
   id="path48"
   inkscape:connector-curvature="0"
   style="fill:url(#grad0-16);stroke:none;stroke-width:34;stroke-linecap:butt" />
				</g>
				<g
   id="shape2895-17"
   transform="translate(48.4895,-16.588)">
					<title
   id="title51">Sheet.2895</title>
					<path
   d="m 0,124.12 a 0.577582,0.584614 -180 0 0 0.577569,0.5846 L 2.01,124.71 a 0.577582,0.584614 -180 0 0 0.577569,-0.5846 L 2.58,122.68 A 0.577582,0.584614 -180 0 0 2.002431,122.0954 L 0.58,122.09 a 0.577582,0.584614 -180 0 0 -0.577569,0.5846 z"
   class="st5"
   id="path53"
   inkscape:connector-curvature="0"
   style="fill:#ffffff;stroke:none;stroke-width:34;stroke-linecap:butt" />
				</g>
				<g
   id="shape2896-19"
   transform="translate(48.4895,-12.9874)">
					<title
   id="title56">Sheet.2896</title>
					<path
   d="m 0,124.12 a 0.577582,0.584614 -180 0 0 0.577569,0.5846 L 2.01,124.71 a 0.577582,0.584614 -180 0 0 0.577569,-0.5846 L 2.58,122.68 A 0.577582,0.584614 -180 0 0 2.002431,122.0954 L 0.58,122.09 a 0.577582,0.584614 -180 0 0 -0.577569,0.5846 z"
   class="st6"
   id="path58"
   inkscape:connector-curvature="0"
   style="fill:#ffffff;fill-opacity:0.6;stroke:none;stroke-width:34;stroke-linecap:butt" />
				</g>
				<g
   id="shape2897-21"
   transform="translate(19.3026)">
					<title
   id="title61">Sheet.2897</title>
					<path
   d="m 0,123.54 a 1.15516,1.16923 -180 0 0 1.16,1.17 H 33.4 a 1.15516,1.16923 -180 0 0 1.16,-1.17 v -7.22 A 1.15516,1.16923 -180 0 0 33.4,115.15 H 1.16 A 1.15516,1.16923 -180 0 0 0,116.32 Z"
   class="st7"
   id="path63"
   inkscape:connector-curvature="0"
   style="fill:url(#grad0-24);stroke:none;stroke-width:34;stroke-linecap:butt" />
				</g>
				<g
   id="shape2898-25"
   transform="translate(48.4895,-5.27469)">
					<title
   id="title66">Sheet.2898</title>
					<path
   d="m 0,124.12 a 0.577582,0.584614 -180 0 0 0.577569,0.5846 L 2.01,124.71 a 0.577582,0.584614 -180 0 0 0.577569,-0.5846 L 2.58,122.68 A 0.577582,0.584614 -180 0 0 2.002431,122.0954 L 0.58,122.09 a 0.577582,0.584614 -180 0 0 -0.577569,0.5846 z"
   class="st5"
   id="path68"
   inkscape:connector-curvature="0"
   style="fill:#ffffff;stroke:none;stroke-width:34;stroke-linecap:butt" />
				</g>
				<g
   id="shape2899-27"
   transform="translate(48.4895,-1.67076)">
					<title
   id="title71">Sheet.2899</title>
					<path
   d="m 0,124.12 a 0.577582,0.584614 -180 0 0 0.577569,0.5846 L 2.01,124.71 a 0.577582,0.584614 -180 0 0 0.577569,-0.5846 L 2.58,122.68 A 0.577582,0.584614 -180 0 0 2.002431,122.0954 L 0.58,122.09 a 0.577582,0.584614 -180 0 0 -0.577569,0.5846 z"
   class="st6"
   id="path73"
   inkscape:connector-curvature="0"
   style="fill:#ffffff;fill-opacity:0.6;stroke:none;stroke-width:34;stroke-linecap:butt" />
				</g>
			</g>
		</g>
	</g>
</svg>

<?xml version="1.0" encoding="UTF-8" standalone="no"?>
<!DOCTYPE svg PUBLIC "-//W3C//DTD SVG 1.1//EN" "http://www.w3.org/Graphics/SVG/1.1/DTD/svg11.dtd">
<!-- Generated by Microsoft Visio, SVG Export Network Function Manager Vendor.svg Page-1 -->
<svg xmlns="http://www.w3.org/2000/svg" xmlns:xlink="http://www.w3.org/1999/xlink" xmlns:ev="http://www.w3.org/2001/xml-events"
		width="1.69275in" height="1.73206in" viewBox="0 0 121.878 124.709" xml:space="preserve" color-interpolation-filters="sRGB"
		class="st8">
	<style type="text/css">
	<![CDATA[
		.st1 {fill:url(#grad0-6);stroke:none;stroke-linecap:butt;stroke-width:34}
		.st2 {fill:#ffffff;fill-opacity:0.8;stroke:none;stroke-linecap:butt;stroke-width:34}
		.st3 {fill:url(#grad0-12);stroke:none;stroke-linecap:butt;stroke-width:34}
		.st4 {fill:url(#grad0-16);stroke:none;stroke-linecap:butt;stroke-width:34}
		.st5 {fill:#ffffff;stroke:none;stroke-linecap:butt;stroke-width:34}
		.st6 {fill:#ffffff;fill-opacity:0.6;stroke:none;stroke-linecap:butt;stroke-width:34}
		.st7 {fill:url(#grad0-24);stroke:none;stroke-linecap:butt;stroke-width:34}
		.st8 {fill:none;fill-rule:evenodd;font-size:12px;overflow:visible;stroke-linecap:square;stroke-miterlimit:3}
	]]>
	</style>

	<defs id="Patterns_And_Gradients">
		<linearGradient id="grad0-6" x1="0" y1="0" x2="1" y2="0" gradientTransform="rotate(90.261797887795 0.5 0.5)">
			<stop offset="0" stop-color="#a67af4" stop-opacity="1"/>
			<stop offset="1" stop-color="#773adc" stop-opacity="1"/>
		</linearGradient>
		<linearGradient id="grad0-12" x1="0" y1="0" x2="1" y2="0" gradientTransform="rotate(90.39898922957 0.5 0.5)">
			<stop offset="0" stop-color="#a67af4" stop-opacity="1"/>
			<stop offset="1" stop-color="#773adc" stop-opacity="1"/>
		</linearGradient>
		<linearGradient id="grad0-16" x1="0" y1="0" x2="1" y2="0" gradientTransform="rotate(90.106312734157 0.5 0.5)">
			<stop offset="0" stop-color="#3cd4c2" stop-opacity="1"/>
			<stop offset="1" stop-color="#37c2b1" stop-opacity="1"/>
		</linearGradient>
		<linearGradient id="grad0-24" x1="0" y1="0" x2="1" y2="0" gradientTransform="rotate(90.106276671575 0.5 0.5)">
			<stop offset="0" stop-color="#3cd4c2" stop-opacity="1"/>
			<stop offset="1" stop-color="#37c2b1" stop-opacity="1"/>
		</linearGradient>
	</defs>
	<g>
		<title>Page-1</title>
		<g id="group2863-1" transform="translate(34.02,-34.0157)">
			<title>Network Function Manager Vendor</title>
			<g id="group2864-2">
				<title>Sheet.2864</title>
				<g id="shape2865-3" transform="translate(0,-5.34112)">
					<title>Sheet.2865</title>
					<path d="M17.67 121.66 A2.75658 2.79014 0 0 1 18.56 119.61 A2.7697 2.80342 0 0 1 17.67 117.57 L17.67 110.34 A2.79268
								 2.82667 0 0 1 20.46 107.52 L42.25 107.52 A20.845 21.0987 -180 0 0 23.22 96.48 C9.19 96.48 1.52 105.48
								 0 120.06 A4.14471 4.19517 -180 0 0 3.7 124.64 L17.67 124.71 L17.67 121.66 Z" class="st1"/>
				</g>
				<g id="shape2866-7" transform="translate(16.4968,-14.1965)">
					<title>Sheet.2866</title>
					<path d="M6.91 108.44 A12.8739 13.0306 0 0 1 0 106.34 L6.91 124.71 L13.81 106.49 A13.1955 13.3561 0 0 1 6.91
								 108.44 Z" class="st2"/>
				</g>
				<g id="shape2867-9" transform="translate(10.3437,-30.459)">
					<title>Sheet.2867</title>
					<ellipse cx="12.9592" cy="111.592" rx="12.9592" ry="13.117" class="st3"/>
				</g>
				<g id="shape2868-13" transform="translate(19.3026,-11.3133)">
					<title>Sheet.2868</title>
					<path d="M0 123.54 A1.15516 1.16923 -180 0 0 1.16 124.71 L33.4 124.71 A1.15516 1.16923 -180 0 0 34.56 123.54
								 L34.56 116.32 A1.15516 1.16923 -180 0 0 33.4 115.15 L1.16 115.15 A1.15516 1.16923 -180 0 0 -0 116.32
								 L0 123.54 Z" class="st4"/>
				</g>
				<g id="shape2869-17" transform="translate(48.4895,-16.588)">
					<title>Sheet.2869</title>
					<path d="M-0 124.12 a0.577582 0.584614 -180 0 0 0.577569 0.5846 L2.01 124.71 a0.577582 0.584614 -180 0 0 0.577569
								 -0.5846 L2.58 122.68 a0.577582 0.584614 -180 0 0 -0.577569 -0.5846 L0.58 122.09 a0.577582 0.584614
								 -180 0 0 -0.577569 0.5846 L0 124.12 Z" class="st5"/>
				</g>
				<g id="shape2870-19" transform="translate(48.4895,-12.9874)">
					<title>Sheet.2870</title>
					<path d="M-0 124.12 a0.577582 0.584614 -180 0 0 0.577569 0.5846 L2.01 124.71 a0.577582 0.584614 -180 0 0 0.577569
								 -0.5846 L2.58 122.68 a0.577582 0.584614 -180 0 0 -0.577569 -0.5846 L0.58 122.09 a0.577582 0.584614
								 -180 0 0 -0.577569 0.5846 L0 124.12 Z" class="st6"/>
				</g>
				<g id="shape2871-21" transform="translate(19.3026,1.27898E-13)">
					<title>Sheet.2871</title>
					<path d="M0 123.54 A1.15516 1.16923 -180 0 0 1.16 124.71 L33.4 124.71 A1.15516 1.16923 -180 0 0 34.56 123.54
								 L34.56 116.32 A1.15516 1.16923 -180 0 0 33.4 115.15 L1.16 115.15 A1.15516 1.16923 -180 0 0 -0 116.32
								 L0 123.54 Z" class="st7"/>
				</g>
				<g id="shape2872-25" transform="translate(48.4895,-5.27469)">
					<title>Sheet.2872</title>
					<path d="M-0 124.12 a0.577582 0.584614 -180 0 0 0.577569 0.5846 L2.01 124.71 a0.577582 0.584614 -180 0 0 0.577569
								 -0.5846 L2.58 122.68 a0.577582 0.584614 -180 0 0 -0.577569 -0.5846 L0.58 122.09 a0.577582 0.584614
								 -180 0 0 -0.577569 0.5846 L0 124.12 Z" class="st5"/>
				</g>
				<g id="shape2873-27" transform="translate(48.4895,-1.67076)">
					<title>Sheet.2873</title>
					<path d="M-0 124.12 a0.577582 0.584614 -180 0 0 0.577569 0.5846 L2.01 124.71 a0.577582 0.584614 -180 0 0 0.577569
								 -0.5846 L2.58 122.68 a0.577582 0.584614 -180 0 0 -0.577569 -0.5846 L0.58 122.09 a0.577582 0.584614
								 -180 0 0 -0.577569 0.5846 L0 124.12 Z" class="st6"/>
				</g>
			</g>
		</g>
	</g>
</svg>
